src/images/common/FacebookLogo.svg

<svg fill="none" height="24" viewBox="0 0 24 24" width="24" xmlns="http://www.w3.org/2000/svg"><path d="m12 2.25c-1.9284 0-3.81343.57183-5.41681 1.64317-1.60337 1.07134-2.85306 2.59409-3.59101 4.37567-.73796 1.78156-.93104 3.74196-.55483 5.63326.3762 1.8913 1.3048 3.6286 2.66836 4.9922 1.36357 1.3636 3.10085 2.2922 4.99219 2.6684 1.8913.3762 3.8517.1831 5.6333-.5549 1.7815-.7379 3.3043-1.9876 4.3756-3.591 1.0714-1.6034 1.6432-3.4884 1.6432-5.4168-.0027-2.58502-1.0308-5.06339-2.8587-6.89128-1.8279-1.82788-4.3063-2.85599-6.8913-2.85872zm.75 17.9653v-5.9653h2.25c.1989 0 .3897-.079.5303-.2197.1407-.1406.2197-.3314.2197-.5303s-.079-.3897-.2197-.5303c-.1406-.1407-.3314-.2197-.5303-.2197h-2.25v-2.25c0-.3978.158-.77936.4393-1.06066s.6629-.43934 1.0607-.43934h1.5c.1989 0 .3897-.07902.5303-.21967.1407-.14065.2197-.33142.2197-.53033s-.079-.38968-.2197-.53033c-.1406-.14065-.3314-.21967-.5303-.21967h-1.5c-.7956 0-1.5587.31607-2.1213.87868s-.8787 1.32567-.8787 2.12132v2.25h-2.25c-.19891 0-.38967.079-.53033.2197-.14065.1406-.21967.3314-.21967.5303s.07902.3897.21967.5303c.14066.1407.33142.2197.53033.2197h2.25v5.9653c-2.11425-.193-4.07272-1.1936-5.46802-2.7938-1.39531-1.6001-2.12003-3.6766-2.02343-5.7974.0966-2.12086 1.00709-4.12283 2.54209-5.5895 1.53499-1.46667 3.57632-2.28513 5.69936-2.28513 2.1231 0 4.1644.81846 5.6994 2.28513s2.4455 3.46864 2.5421 5.5895c.0966 2.1208-.6282 4.1973-2.0235 5.7974-1.3953 1.6002-3.3537 2.6008-5.468 2.7938z" fill="#fff"/></svg>

<svg width="24" height="24" viewBox="0 0 24 24" fill="none" xmlns="http://www.w3.org/2000/svg">
<path d="M12 2.25C10.0716 2.25 8.18657 2.82183 6.58319 3.89317C4.97982 4.96451 3.73013 6.48726 2.99218 8.26884C2.25422 10.0504 2.06114 12.0108 2.43735 13.9021C2.81355 15.7934 3.74215 17.5307 5.10571 18.8943C6.46928 20.2579 8.20656 21.1865 10.0979 21.5627C11.9892 21.9389 13.9496 21.7458 15.7312 21.0078C17.5127 20.2699 19.0355 19.0202 20.1068 17.4168C21.1782 15.8134 21.75 13.9284 21.75 12C21.7473 9.41498 20.7192 6.93661 18.8913 5.10872C17.0634 3.28084 14.585 2.25273 12 2.25ZM12.75 20.2153V14.25H15C15.1989 14.25 15.3897 14.171 15.5303 14.0303C15.671 13.8897 15.75 13.6989 15.75 13.5C15.75 13.3011 15.671 13.1103 15.5303 12.9697C15.3897 12.829 15.1989 12.75 15 12.75H12.75V10.5C12.75 10.1022 12.908 9.72064 13.1893 9.43934C13.4706 9.15804 13.8522 9 14.25 9H15.75C15.9489 9 16.1397 8.92098 16.2803 8.78033C16.421 8.63968 16.5 8.44891 16.5 8.25C16.5 8.05109 16.421 7.86032 16.2803 7.71967C16.1397 7.57902 15.9489 7.5 15.75 7.5H14.25C13.4544 7.5 12.6913 7.81607 12.1287 8.37868C11.5661 8.94129 11.25 9.70435 11.25 10.5V12.75H9C8.80109 12.75 8.61033 12.829 8.46967 12.9697C8.32902 13.1103 8.25 13.3011 8.25 13.5C8.25 13.6989 8.32902 13.8897 8.46967 14.0303C8.61033 14.171 8.80109 14.25 9 14.25H11.25V20.2153C9.13575 20.0223 7.17728 19.0217 5.78198 17.4215C4.38667 15.8214 3.66195 13.7449 3.75855 11.6241C3.85515 9.50324 4.76564 7.50127 6.30064 6.0346C7.83563 4.56793 9.87696 3.74947 12 3.74947C14.1231 3.74947 16.1644 4.56793 17.6994 6.0346C19.2344 7.50127 20.1449 9.50324 20.2415 11.6241C20.3381 13.7449 19.6133 15.8214 18.218 17.4215C16.8227 19.0217 14.8643 20.0223 12.75 20.2153Z" fill="white"/>
</svg>
